imgs/policy.svg

<svg width="54" height="54" viewBox="0 0 54 54" fill="none" xmlns="http://www.w3.org/2000/svg">
<path d="M25.7143 0H2.57143C1.88944 0 1.23539 0.270917 0.753154 0.753154C0.270917 1.23539 0 1.88944 0 2.57143V51.4286C0 52.1106 0.270917 52.7646 0.753154 53.2468C1.23539 53.7291 1.88944 54 2.57143 54H25.7297V0H25.7143ZM19.2857 29.5714H6.42857C6.08758 29.5714 5.76055 29.436 5.51943 29.1949C5.27832 28.9537 5.14286 28.6267 5.14286 28.2857C5.14286 27.9447 5.27832 27.6177 5.51943 27.3766C5.76055 27.1355 6.08758 27 6.42857 27H19.2857C19.6267 27 19.9537 27.1355 20.1949 27.3766C20.436 27.6177 20.5714 27.9447 20.5714 28.2857C20.5714 28.6267 20.436 28.9537 20.1949 29.1949C19.9537 29.436 19.6267 29.5714 19.2857 29.5714ZM19.2857 20.5714H6.42857C6.08758 20.5714 5.76055 20.436 5.51943 20.1949C5.27832 19.9537 5.14286 19.6267 5.14286 19.2857C5.14286 18.9447 5.27832 18.6177 5.51943 18.3766C5.76055 18.1355 6.08758 18 6.42857 18H19.2857C19.6267 18 19.9537 18.1355 20.1949 18.3766C20.436 18.6177 20.5714 18.9447 20.5714 19.2857C20.5714 19.6267 20.436 19.9537 20.1949 20.1949C19.9537 20.436 19.6267 20.5714 19.2857 20.5714ZM19.2857 11.5714H6.42857C6.08758 11.5714 5.76055 11.436 5.51943 11.1949C5.27832 10.9537 5.14286 10.6267 5.14286 10.2857C5.14286 9.94472 5.27832 9.61769 5.51943 9.37658C5.76055 9.13546 6.08758 9 6.42857 9H19.2857C19.6267 9 19.9537 9.13546 20.1949 9.37658C20.436 9.61769 20.5714 9.94472 20.5714 10.2857C20.5714 10.6267 20.436 10.9537 20.1949 11.1949C19.9537 11.436 19.6267 11.5714 19.2857 11.5714Z" fill="#FD3E72"/>
<path d="M51.4285 0H28.2856V54H51.4285C52.1105 54 52.7645 53.7291 53.2468 53.2468C53.729 52.7646 53.9999 52.1106 53.9999 51.4286V2.57143C53.9999 1.88944 53.729 1.23539 53.2468 0.753154C52.7645 0.270917 52.1105 0 51.4285 0ZM47.5714 29.5714H34.7142C34.3732 29.5714 34.0462 29.436 33.8051 29.1949C33.564 28.9537 33.4285 28.6267 33.4285 28.2857C33.4285 27.9447 33.564 27.6177 33.8051 27.3766C34.0462 27.1355 34.3732 27 34.7142 27H47.5714C47.9124 27 48.2394 27.1355 48.4805 27.3766C48.7216 27.6177 48.8571 27.9447 48.8571 28.2857C48.8571 28.6267 48.7216 28.9537 48.4805 29.1949C48.2394 29.436 47.9124 29.5714 47.5714 29.5714ZM47.5714 20.5714H34.7142C34.3732 20.5714 34.0462 20.436 33.8051 20.1949C33.564 19.9537 33.4285 19.6267 33.4285 19.2857C33.4285 18.9447 33.564 18.6177 33.8051 18.3766C34.0462 18.1355 34.3732 18 34.7142 18H47.5714C47.9124 18 48.2394 18.1355 48.4805 18.3766C48.7216 18.6177 48.8571 18.9447 48.8571 19.2857C48.8571 19.6267 48.7216 19.9537 48.4805 20.1949C48.2394 20.436 47.9124 20.5714 47.5714 20.5714ZM47.5714 11.5714H34.7142C34.3732 11.5714 34.0462 11.436 33.8051 11.1949C33.564 10.9537 33.4285 10.6267 33.4285 10.2857C33.4285 9.94472 33.564 9.61769 33.8051 9.37658C34.0462 9.13546 34.3732 9 34.7142 9H47.5714C47.9124 9 48.2394 9.13546 48.4805 9.37658C48.7216 9.61769 48.8571 9.94472 48.8571 10.2857C48.8571 10.6267 48.7216 10.9537 48.4805 11.1949C48.2394 11.436 47.9124 11.5714 47.5714 11.5714Z" fill="#FF91AF"/>
</svg>

<svg width="54" height="54" fill="none" xmlns="http://www.w3.org/2000/svg"><path d="M25.714 0H2.571A2.571 2.571 0 000 2.571V51.43A2.571 2.571 0 002.571 54H25.73V0h-.016zm-6.428 29.571H6.429a1.286 1.286 0 110-2.571h12.857a1.286 1.286 0 010 2.571zm0-9H6.429a1.286 1.286 0 110-2.571h12.857a1.286 1.286 0 010 2.571zm0-9H6.429a1.286 1.286 0 110-2.571h12.857a1.286 1.286 0 010 2.571z" fill="#FD3E72"/><path d="M51.428 0H28.287v54h23.142A2.571 2.571 0 0054 51.429V2.57A2.572 2.572 0 0051.428 0zm-3.857 29.571H34.714a1.286 1.286 0 110-2.571h12.857a1.286 1.286 0 010 2.571zm0-9H34.714a1.286 1.286 0 110-2.571h12.857a1.286 1.286 0 010 2.571zm0-9H34.714a1.286 1.286 0 110-2.571h12.857a1.286 1.286 0 110 2.571z" fill="#FF91AF"/></svg>
